docs/.gitbook/assets/icon-germ-16@light.svg

<svg width="32" height="32" viewBox="0 0 16 16" fill="none" xmlns="http://www.w3.org/2000/svg">
<rect x="0" y="0" width="16" height="16" fill="#fff"/>
<path fill-rule="evenodd" clip-rule="evenodd" d="M5.99992 1.75C5.99992 1.33579 6.33571 1 6.74992 1L9.24992 1C9.66414 1 9.99992 1.33579 9.99992 1.75C9.99992 2.16421 9.66414 2.5 9.24992 2.5L8.7504 2.5L8.75041 4.07018C9.2974 4.17394 9.80496 4.38908 10.2486 4.69111L11.4395 3.50019L11.2197 3.28033C10.9268 2.98744 10.9268 2.51256 11.2197 2.21967C11.5126 1.92678 11.9874 1.92678 12.2803 2.21967L13.7803 3.71967C14.0732 4.01256 14.0732 4.48744 13.7803 4.78033C13.4874 5.07322 13.0126 5.07322 12.7197 4.78033L12.5002 4.56085L11.3093 5.75177C11.6113 6.19543 11.8264 6.70299 11.9302 7.24998L13.5001 7.24998V6.75C13.5001 6.33579 13.8359 6 14.2501 6C14.6643 6 15.0001 6.33579 15.0001 6.75V9.25C15.0001 9.66421 14.6643 10 14.2501 10C13.8359 10 13.5001 9.66421 13.5001 9.25V8.74998L11.9302 8.74998C11.8265 9.29695 11.6113 9.8045 11.3093 10.2481L12.5002 11.4392L12.7197 11.2197C13.0126 10.9268 13.4874 10.9268 13.7803 11.2197C14.0732 11.5126 14.0732 11.9874 13.7803 12.2803L12.2803 13.7803C11.9874 14.0732 11.5126 14.0732 11.2197 13.7803C10.9268 13.4874 10.9268 13.0126 11.2197 12.7197L11.4395 12.4998L10.2487 11.3088C9.80502 11.6109 9.29747 11.826 8.7505 11.9298V13.5H9.25C9.66422 13.5 10 13.8358 10 14.25C10 14.6642 9.66422 15 9.25 15H6.75C6.33579 15 6 14.6642 6 14.25C6 13.8358 6.33579 13.5 6.75 13.5H7.2505V11.9298C6.70348 11.8261 6.19588 11.6109 5.7522 11.3089L4.56087 12.5002L4.78034 12.7197C5.07323 13.0126 5.07323 13.4874 4.78034 13.7803C4.48745 14.0732 4.01257 14.0732 3.71968 13.7803L2.21968 12.2803C1.92679 11.9874 1.92679 11.5126 2.21968 11.2197C2.51257 10.9268 2.98745 10.9268 3.28034 11.2197L3.50021 11.4395L4.69153 10.2482C4.3895 9.80455 4.17437 9.29699 4.0706 8.75L2.5 8.75L2.5 9.25C2.5 9.66422 2.16421 10 1.75 10C1.33579 10 1 9.66422 1 9.25L1 6.75C1 6.33579 1.33579 6 1.75 6C2.16421 6 2.5 6.33579 2.5 6.75V7.25L4.0706 7.25C4.17433 6.70316 4.38937 6.19572 4.69127 5.75214L3.49999 4.56073L3.2804 4.78033C2.9875 5.07322 2.51263 5.07322 2.21973 4.78033C1.92684 4.48744 1.92684 4.01256 2.21973 3.71967L3.71973 2.21967C4.01263 1.92678 4.4875 1.92678 4.7804 2.21967C5.07329 2.51256 5.07329 2.98744 4.7804 3.28033L4.56065 3.50007L5.75182 4.69136C6.19557 4.3892 6.70326 4.17397 7.25041 4.07018L7.2504 2.5L6.74992 2.5C6.33571 2.5 5.99992 2.16421 5.99992 1.75ZM8.0004 5.49998C6.61969 5.49998 5.5004 6.61927 5.5004 7.99998C5.5004 9.3807 6.61969 10.5 8.0004 10.5C9.38112 10.5 10.5004 9.3807 10.5004 7.99998C10.5004 6.61927 9.38112 5.49998 8.0004 5.49998Z" fill="#000"/>
</svg>

<svg xmlns="http://www.w3.org/2000/svg" width="32" height="32" fill="none" viewBox="0 0 16 16"><path fill="#fff" d="M0 0h16v16H0z"/><path fill="#000" fill-rule="evenodd" d="M6 1.75A.75.75 0 0 1 6.75 1h2.5a.75.75 0 1 1 0 1.5h-.5v1.57a4 4 0 0 1 1.499.621l1.19-1.19-.22-.22A.75.75 0 0 1 12.28 2.22l1.5 1.5a.75.75 0 0 1-1.06 1.06l-.22-.22-1.19 1.192c.301.443.516.951.62 1.498h1.57v-.5a.75.75 0 0 1 1.5 0v2.5a.75.75 0 0 1-1.5 0v-.5h-1.57a4 4 0 0 1-.62 1.498l1.19 1.191.22-.22a.75.75 0 1 1 1.06 1.061l-1.5 1.5a.75.75 0 1 1-1.06-1.06l.22-.22-1.191-1.191a4 4 0 0 1-1.498.62V13.5h.499a.75.75 0 0 1 0 1.5h-2.5a.75.75 0 0 1 0-1.5h.5v-1.57a4 4 0 0 1-1.498-.621L4.561 12.5l.22.22a.75.75 0 1 1-1.061 1.06l-1.5-1.5a.75.75 0 1 1 1.06-1.06l.22.22 1.192-1.192A4 4 0 0 1 4.07 8.75H2.5v.5a.75.75 0 1 1-1.5 0v-2.5a.75.75 0 0 1 1.5 0v.5h1.57a4 4 0 0 1 .621-1.498L3.5 4.561l-.22.22A.75.75 0 0 1 2.22 3.72l1.5-1.5a.75.75 0 0 1 1.06 1.06l-.22.22 1.192 1.191a4 4 0 0 1 1.498-.62V2.5h-.5A.75.75 0 0 1 6 1.75M8 5.5a2.5 2.5 0 1 0 0 5 2.5 2.5 0 0 0 0-5" clip-rule="evenodd"/></svg>
